images/rq.svg

<svg width="51" height="50" viewBox="0 0 51 50" fill="none" xmlns="http://www.w3.org/2000/svg">
<path d="M50.25 0.70811V25.8197C50.25 41.4715 44.5303 49.2962 33.0886 49.2962C31.8235 49.2962 29.8907 49.2091 27.2859 49.0453V39.3281C35.2 39.3281 39.1465 35.6688 39.1465 28.3522L39.0189 23.9337H30.8199V0.712363L50.25 0.70811ZM2.77605 23.9273H10.9751L11.1026 28.3437C11.1026 35.2393 7.48581 38.9008 0.25 39.3218V49.039C2.51876 49.2048 4.11774 49.2877 5.04269 49.2877C16.4843 49.2877 22.2041 41.463 22.2041 25.8134V0.703857H2.77179V23.9252L2.77605 23.9273Z" fill="#EDF0F3"/>
</svg>

<svg width="51" height="50" fill="none" xmlns="http://www.w3.org/2000/svg"><path d="M50.25.708V25.82c0 15.651-5.72 23.476-17.161 23.476-1.265 0-3.198-.087-5.803-.25v-9.718c7.914 0 11.86-3.66 11.86-10.976l-.127-4.418h-8.2V.712L50.25.708zM2.776 23.928h8.2l.127 4.416c0 6.895-3.617 10.557-10.853 10.978v9.717c2.269.166 3.868.249 4.793.249 11.441 0 17.161-7.825 17.161-23.475V.703H2.772v23.222l.004.002z" fill="#EDF0F3"/></svg>
